Flat-Remix-Dark/apps/scalable/all-video-downloader.svg

<svg xmlns="http://www.w3.org/2000/svg" width="384pt" height="384pt" version="1.1" viewBox="0 0 384 384"> <g> <path style="fill:rgb(89.411%,18.823%,18.823%)" d="M 365.402344 190.425781 C 365.402344 286.257812 287.714844 363.941406 191.886719 363.941406 C 96.054688 363.941406 18.367188 286.257812 18.367188 190.425781 C 18.367188 94.59375 96.054688 16.910156 191.886719 16.910156 C 287.714844 16.910156 365.402344 94.59375 365.402344 190.425781 Z M 365.402344 190.425781"/> <path style="fill:rgb(58.431%,7.058%,7.058%)" d="M 253.039062 130.121094 C 259.558594 144.378906 274.644531 168.972656 261.476562 180.6875 C 239.183594 96.160156 170.21875 78.382812 170.21875 78.382812 C 176.738281 121.972656 160.441406 170.09375 131.371094 205.710938 C 130.351562 188.328125 115.464844 171.925781 106.273438 159.246094 C 104.246094 190.449219 94.1875 216.40625 87.640625 247.542969 C 100.757812 246.996094 113.878906 247.25 126.996094 243.5 C 154.851562 235.738281 181.789062 224.777344 210.558594 225.234375 C 222.429688 225.691406 236.128906 230.714844 242.066406 241.21875 C 242.738281 242.351562 243.277344 243.515625 243.695312 244.699219 C 265.105469 245.996094 282.070312 263.765625 282.070312 285.496094 C 282.070312 305.582031 241.609375 343.5 211.320312 362.984375 C 214.054688 361.996094 224.027344 362.679688 247.582031 351.265625 C 271.136719 339.847656 288.484375 325.238281 299.652344 311.96875 C 366.082031 233.035156 269.78125 142.328125 253.039062 130.121094"/> <path style="fill:rgb(100.000%,100.000%,100.000%)" d="M 253.039062 130.121094 C 259.558594 144.378906 260.792969 168.515625 247.625 180.230469 C 225.335938 95.703125 170.21875 78.382812 170.21875 78.382812 C 176.738281 121.972656 146.59375 169.636719 117.519531 205.253906 C 116.5 187.871094 115.414062 175.878906 106.273438 159.246094 C 104.222656 190.820312 80.09375 216.558594 73.558594 248.195312 C 64.707031 291.039062 98.171875 338.238281 138.992188 353.269531 C 148.226562 356.667969 168.757812 361.054688 177.414062 362.929688 C 154.632812 345.507812 117.835938 313.003906 117.835938 284.816406 C 117.835938 255.46875 136.949219 242.132812 160.519531 242.132812 C 174.71875 242.132812 187.257812 249.09375 195.019531 259.753906 C 202.785156 249.09375 215.328125 242.132812 229.523438 242.132812 C 253.097656 242.132812 272.210938 261.246094 272.210938 284.816406 C 272.210938 311.667969 234.269531 345.058594 211.476562 362.929688 C 216.300781 361.175781 225.320312 359.027344 237.386719 352.136719 C 386.558594 266.941406 272.59375 144.378906 253.039062 130.121094"/> <path style="fill:rgb(89.411%,18.823%,18.823%)" d="M 230.332031 240.921875 C 254.175781 240.921875 273.503906 260.253906 273.503906 284.089844 C 273.503906 310.886719 234.421875 344.753906 211.320312 362.984375 C 202.097656 364.988281 187.554688 365.304688 177.484375 362.984375 C 154.433594 345.335938 117.371094 312.539062 117.371094 284.089844 C 117.371094 254.414062 136.703125 240.921875 160.542969 240.921875 C 174.902344 240.921875 187.585938 247.964844 195.4375 258.746094 C 203.289062 247.964844 215.976562 240.921875 230.332031 240.921875"/> <path style="fill:rgb(89.411%,18.823%,18.823%)" d="M 274.902344 272.230469 C 274.902344 312.34375 239.183594 344.859375 195.125 344.859375 C 151.070312 344.859375 115.351562 312.34375 115.351562 272.230469 C 115.351562 232.117188 151.070312 199.597656 195.125 199.597656 C 239.183594 199.597656 274.902344 232.117188 274.902344 272.230469 Z M 274.902344 272.230469"/> <path style="fill:rgb(100.000%,100.000%,100.000%)" d="M 195.949219 341.703125 C 198.648438 341.703125 201.210938 340.550781 203.101562 338.675781 L 236.941406 305.9375 C 238.816406 304.167969 239.898438 301.640625 239.964844 299.0625 C 240.105469 294.96875 237.78125 291.304688 233.914062 289.707031 C 230.0625 288.109375 225.539062 288.96875 222.636719 291.90625 L 204.753906 309.238281 L 204.753906 236.0625 L 187.148438 236.0625 L 187.148438 309.238281 L 169.265625 291.90625 C 165.3125 288.058594 158.933594 288.058594 154.960938 291.90625 C 151.003906 295.757812 151.003906 302.085938 154.960938 305.9375 L 188.796875 338.675781 C 190.707031 340.550781 193.269531 341.703125 195.949219 341.703125 Z M 195.949219 341.703125"/> </g> </svg>

<svg width="512" height="512" version="1.1" viewBox="0 0 384 384" xmlns="http://www.w3.org/2000/svg"><path d="m365.4 190.43c0 95.832-77.688 173.52-173.52 173.52-95.832 0-173.52-77.684-173.52-173.52s77.688-173.52 173.52-173.52c95.828 0 173.52 77.684 173.52 173.52z" fill="#e32e2e"/><path d="m253.04 130.12c6.5195 14.258 21.605 38.852 8.4375 50.566-22.293-84.527-91.258-102.3-91.258-102.3 6.5195 43.59-9.7773 91.711-38.848 127.33-1.0195-17.383-15.906-33.785-25.098-46.465-2.0274 31.203-12.086 57.16-18.633 88.297 13.117-0.54688 26.238-0.29297 39.355-4.043 27.855-7.7617 54.793-18.723 83.562-18.266 11.871 0.45704 25.57 5.4805 31.508 15.984 0.67187 1.1328 1.2109 2.2969 1.6289 3.4805 21.41 1.2969 38.375 19.066 38.375 40.797 0 20.086-40.461 58.004-70.75 77.488 2.7344-0.98828 12.707-0.30468 36.262-11.719 23.555-11.418 40.902-26.027 52.07-39.297 66.43-78.934-29.871-169.64-46.613-181.85" fill="#941111"/><path d="m253.04 130.12c6.5195 14.258 7.7539 38.395-5.4141 50.109-22.289-84.527-77.406-101.85-77.406-101.85 6.5195 43.59-23.625 91.254-52.699 126.87-1.0195-17.383-2.1055-29.375-11.246-46.008-2.0508 31.574-26.18 57.312-32.715 88.949-8.8516 42.844 24.613 90.043 65.434 105.07 9.2344 3.3984 29.766 7.7852 38.422 9.6602-22.781-17.422-59.578-49.926-59.578-78.113 0-29.348 19.113-42.684 42.684-42.684 14.199 0 26.738 6.9609 34.5 17.621 7.7656-10.66 20.309-17.621 34.504-17.621 23.574 0 42.688 19.113 42.688 42.684 0 26.852-37.941 60.242-60.734 78.113 4.8242-1.7539 13.844-3.9024 25.91-10.793 149.17-85.195 35.207-207.76 15.652-222.02" fill="#fff"/><path d="m230.33 240.92c23.844 0 43.172 19.332 43.172 43.168 0 26.797-39.082 60.664-62.184 78.895-9.2226 2.0039-23.766 2.3203-33.836 0-23.051-17.648-60.113-50.445-60.113-78.895 0-29.676 19.332-43.168 43.172-43.168 14.359 0 27.043 7.043 34.895 17.824 7.8516-10.781 20.539-17.824 34.895-17.824" fill="#e32e2e"/><path d="m274.9 272.23c0 40.113-35.719 72.629-79.777 72.629-44.055 0-79.773-32.516-79.773-72.629s35.719-72.633 79.773-72.633c44.059 0 79.777 32.52 79.777 72.633z" fill="#e32e2e"/><path d="m195.95 341.7c2.6992 0 5.2617-1.1523 7.1523-3.0273l33.84-32.738c1.875-1.7695 2.957-4.2969 3.0234-6.875 0.14063-4.0938-2.1836-7.7578-6.0508-9.3555-3.8516-1.5977-8.375-0.73828-11.277 2.1992l-17.883 17.332v-73.176h-17.605v73.176l-17.883-17.332c-3.9531-3.8477-10.332-3.8477-14.305 0-3.957 3.8516-3.957 10.18 0 14.031l33.836 32.738c1.9102 1.875 4.4727 3.0273 7.1524 3.0273z" fill="#fff"/></svg>
